X:1
T:Allegro. SenH.002
T:Allegro. SenH.002
T:in Hand A
C:in Hand A
L:1/8
Q:1/4=100
M:3/4
K:C
V:1 treble 
V:1
 c | c6- | c>g e>f g>a | d>g f>g c>c' | a>bc'>d' a>c' | b>g G>ba>g | g>a F>ag>f | e>g c>ba>g | %8
 f>a d>d' g>a | g/4a/4b/c'/b/ a3 g | g4 || z2 d' | d'>b g>e' a>b | c'>g ^g>c' a>c' | b2 g>f e>c' | %15
 f>a d>b e>g | c>a d>f B>g | c>e A>f Bd | G>d g>b a>b a>d | e>f g>c d>e | f>A B>c B>d' | %21
 b>d' g>e' a>b | (g/a/b) (b/c'/d') c'>b | c'4 |] %24

